X:1
T:Hymnus Eucharisticus, LM
T:Hymnus Eucharisticus, LM
T:Benjamin Rogers (1641-1698)
T:Public Domain Courtesy of the Cyber Hymnal™
C:Benjamin Rogers (1641-1698)
Z:Public Domain
Z:Courtesy of the Cyber Hymnal™
%%score ( 1 2 ) ( 3 4 )
L:1/8
Q:1/4=110
M:3/4
K:Bb
V:1 treble 
V:2 treble 
V:3 bass 
V:4 bass 
V:1
 [DG]2 [DG]2 [DA]2 | B3 c [Dd]2 | cB A3 G x2 | (G2 ^F4) | [D^F]2 [DF]2 [DG]2 | [FA]4 [FB]2 | %6
 c2 [Cc]3 [DB] | [DB]6 | [DB]2 [DB]2 [DB]2 | [CA]4 BA | G2 z [CA]2 x3 | (G2 ^F4) | %12
 [B,G]2 [CA]2 [DB]2 | c4 cB | B2 z [DA]2 x3 | [B,G]6 |] %16
V:2
 x6 | D4 x2 | E4 E4 | D6 | x6 | x6 | ED x4 | x6 | x6 | x4 D2 | D4 (G3 D) | D6 | x6 | C3 D E2 | %14
 D4 (A3 C) | x6 |] %16
V:3
 [G,B,]2 [G,B,]2 [D,^F,]2 | G,4 [F,A,]2 | [E,G,]2 C3 B, x2 | [D,A,]6 | [D,A,]2 [D,A,]2 [G,B,]2 | %5
 [F,C]4 [D,D]2 | CB, (B,2 A,)B, | [B,,B,]6 | [B,,F,]2 [B,,F,]2 [B,,F,]2 | F,4 [D,F,]2 | %10
 [E,G,]4 [E,G,]2 x2 | [D,A,]6 | [G,B,]2 [F,A,]2 [D,F,]2 | G,4 A,G, | [D,G,]4 (G,^F,) x2 | %15
 [G,,G,]6 |] %16
V:4
 x6 | G,4 x2 | x2 C,4 x2 | x6 | x6 | x6 | E,2 F,4 | x6 | x6 | F,4 x2 | x8 | x6 | x6 | E,3 D, C,2 | %14
 x4 D,2 x2 | x6 |] %16

